_inc/images/systems/logos/gb.svg

<?xml version="1.0" encoding="utf-8"?>
<svg id="svg2" version="1.1" enable-background="new 0 0 566.929 98.574" y="0px" x="0px" viewBox="0 0 264 46" xmlns="http://www.w3.org/2000/svg">
  <g id="g4" fill="#fff" transform="matrix(0.465655, 0, 0, 0.46666, -0.001408, -0.000299)">
    <polygon id="_43443024" points="542.31 0.917 566.93 0.917 532.22 54.913 526.59 97.041 504.34 97.041 510.86 48.973 488.61 0.917 512.64 0.917 524.51 28.215"/>
    <polygon id="_43441624" points="283.03 59.066 312.39 59.066 315.36 37.706 286.29 37.706 288.37 22.276 322.18 22.276 325.45 0.917 269.38 0.917 256.03 97.041 311.8 97.041 314.77 75.671 280.95 75.671"/>
    <path id="_43775888" d="m112.15 49.565 7.416-19.874 2.375 19.874h-9.79zm-8.01 18.987h20.172l3.563 28.48h36.488l16.91-52.213 8.309 52.213h19.283l21.359-55.179 3.561 55.179h21.359l-5.934-96.119h-25.514l-19.88 50.727-7.715-50.727h-22.842l-26.105 78.912-9.791-78.912h-28.48l-31.744 79.8 4.154-31.149h-38.571l-2.672 18.987h16.912l-1.188 6.526c-2.967 1.778-9.789 2.076-12.459 2.076s-22.545-1.779-21.656-23.14c0.882-21.358 29.362-41.234 63.181-30.258l3.266-20.47c-22.548-7.712-81.766-3.396-87.815 49.543-3.559 31.149 24.921 45.983 43.906 45.688 10.977 0.594 23.438-3.561 27.887-5.935l-1.482 4.451h22.547l10.977-28.48z"/>
    <path id="_44102912" d="m464.58 0.028c-15.428-0.594-37.678 8.306-45.094 44.204-7.416 35.894 12.459 50.431 30.852 52.804 18.396 2.373 44.205-9.196 48.951-43.609 4.75-34.414-12.17-52.508-34.71-53.399zm-2.37 20.47c6.229 0 19.578 4.154 16.314 29.071-3.262 24.92-18.688 27.887-24.326 27.293-5.637-0.594-17.207-4.448-13.943-27.293 3.27-22.841 15.43-29.368 21.96-29.071z"/>
    <path id="_44104296" d="m370.83 37.706h12.461c9.197 0 10.977-5.934 11.271-8.305 0.297-2.375-2.371-7.122-7.117-7.122h-14.537l-2.07 15.427zm-5.34 37.971h16.912c9.195 0 11.271-7.119 11.566-9.493 0.299-2.373-2.371-7.118-7.117-7.118h-18.986l-2.37 16.611zm-24.91 21.361 13.35-96.118h40.938c9.793 0 24.031 11.274 22.252 26.403-1.779 15.13-6.527 16.02-9.791 18.393 5.045 4.447 10.088 11.568 8.012 24.918-2.078 13.352-13.055 26.403-32.338 26.403l-42.42 0.001z"/>
  </g>
</svg>

<?xml version="1.0" encoding="UTF-8" standalone="no"?>
<!DOCTYPE svg PUBLIC "-//W3C//DTD SVG 1.1//EN" "http://www.w3.org/Graphics/SVG/1.1/DTD/svg11.dtd">
<svg width="100%" height="100%" viewBox="0 0 636 117" version="1.1" xmlns="http://www.w3.org/2000/svg" xmlns:xlink="http://www.w3.org/1999/xlink" xml:space="preserve" xmlns:serif="http://www.serif.com/" style="fill-rule:evenodd;clip-rule:evenodd;stroke-linejoin:round;stroke-miterlimit:2;">
    <g transform="matrix(1,0,0,1,-822,-913)">
        <g id="gb.afdesign" transform="matrix(1,0,0,1,1140,971.111)">
            <g transform="matrix(1,0,0,1,-318.186,-57.9935)">
                <g transform="matrix(1.11475,0,0,1.11716,4.01454,4.93867)">
                    <path id="_43443024" d="M542.31,0.917L566.93,0.917L532.22,54.913L526.59,97.041L504.34,97.041L510.86,48.973L488.61,0.917L512.64,0.917L524.51,28.215L542.31,0.917Z" style="fill:white;fill-rule:nonzero;"/>
                    <path id="_43441624" d="M283.03,59.066L312.39,59.066L315.36,37.706L286.29,37.706L288.37,22.276L322.18,22.276L325.45,0.917L269.38,0.917L256.03,97.041L311.8,97.041L314.77,75.671L280.95,75.671L283.03,59.066Z" style="fill:white;fill-rule:nonzero;"/>
                    <path id="_43775888" d="M112.15,49.565L119.566,29.691L121.941,49.565L112.15,49.565ZM104.126,68.552L124.312,68.552L127.875,97.032L164.363,97.032L181.273,44.819L189.582,97.032L208.865,97.032L230.224,41.853L233.785,97.032L255.144,97.032L249.21,0.913L223.696,0.913L203.816,51.64L196.101,0.913L173.259,0.913L147.154,79.825L137.363,0.913L108.883,0.913L77.139,80.713L81.293,49.564L42.722,49.564L40.05,68.551L56.962,68.551L55.774,75.077C52.807,76.855 45.985,77.153 43.315,77.153C40.645,77.153 20.77,75.374 21.659,54.013C22.541,32.655 51.021,12.779 84.84,23.755L88.106,3.285C65.558,-4.427 6.34,-0.111 0.291,52.828C-3.268,83.977 25.212,98.811 44.197,98.516C55.174,99.11 67.635,94.955 72.084,92.581L70.602,97.032L93.149,97.032L104.126,68.552Z" style="fill:white;fill-rule:nonzero;"/>
                    <path id="_44102912" d="M464.58,0.028C449.152,-0.566 426.902,8.334 419.486,44.232C412.07,80.126 431.945,94.663 450.338,97.036C468.734,99.409 494.543,87.84 499.289,53.427C504.039,19.013 487.119,0.919 464.579,0.028L464.58,0.028ZM462.21,20.498C468.439,20.498 481.788,24.652 478.524,49.569C475.262,74.489 459.836,77.456 454.198,76.862C448.561,76.268 436.991,72.414 440.255,49.569C443.525,26.728 455.685,20.201 462.215,20.498L462.21,20.498Z" style="fill:white;fill-rule:nonzero;"/>
                    <path id="_44104296" d="M370.83,37.706L383.291,37.706C392.488,37.706 394.268,31.772 394.562,29.401C394.859,27.026 392.191,22.279 387.445,22.279L372.908,22.279L370.838,37.706L370.83,37.706ZM365.49,75.677L382.402,75.677C391.597,75.677 393.673,68.558 393.968,66.184C394.267,63.811 391.597,59.066 386.851,59.066L367.865,59.066L365.495,75.677L365.49,75.677ZM340.58,97.038L353.93,0.92L394.868,0.92C404.661,0.92 418.899,12.194 417.12,27.323C415.341,42.453 410.593,43.343 407.329,45.716C412.374,50.163 417.417,57.284 415.341,70.634C413.263,83.986 402.286,97.037 383.003,97.037L340.583,97.038L340.58,97.038Z" style="fill:white;fill-rule:nonzero;"/>
                </g>
            </g>
        </g>
    </g>
</svg>
